!!! OTL: Berkowitz599
!!! Chapter: 1
!!! Section: V
!!! Page: 152
!!! Mode: 
!!! Encoder: AR
**kern
*staff1
=1-
!!pagebreak:original
*clefG2
*k[]
*C:
*M4/4
2B/
8r
8B/
8A#/L
8B/J
=2
8c/L
8f#/J
4e/
8r
8a#/
8g#/L
8e/J
=3
4gn/
4e-/
8r
8g/
q0.332031an/L
q0.332031g/
q0.335938a/J
=4
4f#/
4c#/
2r
=5
2d/
8r
8fn/
8g-/L
8f/J
=6
!!linebreak:original
8b/L
8a/J
4e/
8a/L
8gn/J
4d/
=7
2c#/
8r
8e/
8d#/L
8e/J
=8
4cn/
4r
8r
8e/
8d#/L
8e/J
=9
!!linebreak:original
4B-/
4r
8r
8Bn/
8e/L
8a/J
=10
2b-\
2g-/
=11
2.cc\
4r
==
*-
